build/images/icon-star-1.svg

<svg width="21" height="21" viewBox="0 0 21 21" fill="none" xmlns="http://www.w3.org/2000/svg">
<path d="M9.69375 3.52244C10.0226 2.82585 10.9729 2.82585 11.3017 3.52244L12.9241 6.95873C13.0547 7.23535 13.3071 7.42707 13.5991 7.47143L17.2269 8.02247C17.9622 8.13417 18.2559 9.07886 17.7237 9.62107L15.0987 12.2959C14.8874 12.5112 14.791 12.8214 14.8409 13.1254L15.4605 16.9023C15.5862 17.6679 14.8174 18.2517 14.1597 17.8903L10.9149 16.1071C10.6538 15.9635 10.3417 15.9635 10.0805 16.1071L6.83581 17.8903C6.17806 18.2517 5.40931 17.6679 5.53493 16.9023L6.15462 13.1254C6.2045 12.8214 6.10808 12.5112 5.89677 12.2959L3.27173 9.62107C2.7396 9.07886 3.03324 8.13417 3.76862 8.02247L7.39633 7.47143C7.68835 7.42707 7.9408 7.23535 8.07139 6.95873L9.69375 3.52244Z" fill="#F2C94C"/>
</svg>

<svg width="21" height="21" fill="none" xmlns="http://www.w3.org/2000/svg"><path d="M9.694 3.522a.88.88 0 011.608 0l1.622 3.437a.9.9 0 00.675.512l3.628.551c.735.112 1.029 1.057.497 1.6l-2.625 2.674a.964.964 0 00-.258.83l.62 3.776c.125.766-.644 1.35-1.301.988l-3.245-1.783a.862.862 0 00-.834 0L6.836 17.89c-.658.362-1.427-.222-1.301-.988l.62-3.777a.964.964 0 00-.258-.83L3.272 9.622c-.532-.542-.239-1.487.497-1.599l3.627-.55a.9.9 0 00.675-.513l1.623-3.437z" fill="#F2C94C"/></svg>
